X:1
T:I’m Going There
T:Charles Albert Tindley, 1907
T:I’m Going There
T:Public Domain
T:Public Domain
C:Charles Albert Tindley, 1907
Z:Public Domain
%%score ( 1 2 ) 3
L:1/8
M:3/4
K:Eb
V:1 treble 
V:2 treble 
V:3 bass 
V:1
 [EG] | [EG]>[EF] E3 [EF] | [CE]>C [B,E]2 z [B,E] | [EG][EB] [EB]3 [EG] | E[EG] [EF]2 z [EG] | %5
w: 1.~Since|I be- gan to|the Lord, A- nd|love His bless- èd|Word, A child of|
w: 2.~And|oft- en when I|do good, And keep|promi- ise as I|should, I miss the|
w: 3.~Some-|times at best I|ly know Just what|do or where to|go, And when I|
w: 4.~And|then I wait, it|not long Be- fore|comes in prayer and|song, And when He|
w: 5.~When|tri- als press up-|my soul, And pierce|heart with grief un-|told, I look a-|
w: 6.~My|friends and kin- dred|have gone, Are now|mong that heav’n- ly|throng; Far, far a-|
 [EG]>[EF] E3 [EF] | [CE]>C [B,E]2 z [B,E] | [EG][EB] [EB]3 [EG] | [DF]>[B,E] [B,E]2 z || %9
w: I’ve tried to be,|world has been no|to me. * *||
w: and com- ing short,|makes me mourn and|my heart. * *||
w: or try to pray,|Sav- ior seems so|a- way. Al- though|a pil- grim|
w: O bless- èd voice,|al- ways makes my|re- joice. * *||
w: to man- sions fair,|oft- en wish that|was there. * *||
w: this world of tears,|chang- ing scenes and|ing years. * *||
"^Refrain" [EB] | [Ge]>[Ge] [Ge]3 [GB] | [Ec]>[EB] [EB]2 z [EB] | [Ge]>[Ge] [Ge]3 [Ec] | %13
w: ||||
w: ||||
w: here|be- low, Where dan-|gers are and sor-|rows grow, I have|
w: ||||
w: ||||
w: ||||
 [EB][EG] [EB]2 z [EG] | [EG]>[EF] E3 [EF] | [CE]>C [B,E]2 z [B,E] | [EG][EB] [EB]2 z [EG] | %17
w: ||||
w: ||||
w: a home in Heav’n|a- bove, I’m go-|there, I’m go- ing||
w: ||||
w: ||||
w: ||||
 [DF]>[B,E] [B,E]2 z |] %18
w: |
w: |
w: |
w: |
w: |
w: |
V:2
 x | x2 E3 x | x3/2 C/ x4 | x6 | E x5 | x2 E3 x | x3/2 C/ x4 | x6 | x5 || x | x6 | x6 | x6 | x6 | %14
w: |serve|to||Heav’n|This|friend||||||||
w: |would|the||way,|It|grieves||||||||
w: |hard-|to||sing|My|far||||||||
w: |is|He||speaks,|It|heart||||||||
w: |on|my||way|And|I||||||||
w: |who|a-||bove|Its|roll-||||||||
 x2 E3 x | x3/2 C/ x4 | x6 | x5 |] %18
w: ||||
w: ||||
w: ing|there.|||
w: ||||
w: ||||
w: ||||
V:3
 [E,B,] | [E,B,]>[E,B,] [E,G,]3 [E,A,] | [A,,A,]>[A,,A,] [E,G,]2 z [E,G,] | %3
 [E,B,][E,G,] [E,G,]3 [E,B,] | [F,=A,][F,A,] [B,,B,]2 z [E,B,] | [E,B,]>[E,A,] [E,G,]3 [E,A,] | %6
 [A,,A,]>[A,,A,] [E,G,]2 z [E,G,] | [E,B,][E,G,] [E,G,]3 [E,B,] | [B,,A,]>[E,G,] [E,G,]2 z || %9
 [E,G,] | [E,B,]>[E,B,] [E,B,]3 [E,B,] | [A,,A,]>[E,G,] [E,G,]2 z [E,G,] | %12
 [E,B,]>[E,B,] [E,B,]3 [G,A,] | [G,B,][E,B,] [E,G,]2 z [E,B,] | [E,B,]>[E,A,] [E,G,]3 [E,A,] | %15
 [A,,A,]>[A,,A,] [E,G,]2 z [E,G,] | [E,B,][E,G,] [E,G,]2 z [E,B,] | [B,,A,]>[E,G,] [E,G,]2 z |] %18

